images/news-analyzer-logo-black.svg

<svg width="138" height="21" viewBox="0 0 138 21" fill="none" xmlns="http://www.w3.org/2000/svg">
<path d="M15.0779 1.78108V3.49988L13.5545 3.79285V15.9998H10.7127L4.97052 6.42955L4.91193 6.43931V13.9979L6.43533 14.2909V15.9999H0.546631V14.2909L2.06033 13.9979V3.79291L0.546631 3.49994V1.78114H4.91183L10.654 11.3515L10.7126 11.3417V3.79294L9.18923 3.49997V1.78117H15.0778L15.0779 1.78108ZM21.1228 16.2051C19.5994 16.2051 18.382 15.7168 17.4705 14.7402C16.559 13.7637 16.1033 12.5234 16.1033 11.0195V10.6289C16.1033 9.05988 16.533 7.76758 17.3924 6.75188C18.2583 5.73628 19.4171 5.23168 20.8689 5.23818C22.2947 5.23818 23.4015 5.66787 24.1893 6.52728C24.977 7.38666 25.3709 8.54878 25.3709 10.0137V11.5664H19.0623L19.0428 11.625C19.0949 12.3216 19.326 12.8945 19.7361 13.3438C20.1528 13.793 20.7159 14.0176 21.4256 14.0176C22.0571 14.0176 22.5812 13.9557 22.9978 13.832C23.4145 13.7018 23.8702 13.5 24.365 13.2266L25.1365 14.9844C24.7003 15.3294 24.1339 15.6191 23.4373 15.8535C22.7472 16.0879 21.9757 16.2051 21.1228 16.2051ZM20.8689 7.43548C20.3416 7.43548 19.9249 7.6373 19.6189 8.04095C19.313 8.44459 19.1241 8.97519 19.0525 9.63275L19.0818 9.68158H22.5779V9.42767C22.5779 8.82221 22.4347 8.34047 22.1482 7.98237C21.8683 7.61779 21.4419 7.4355 20.8689 7.4355V7.43548ZM41.7869 7.15227L40.7225 7.28899L38.5154 15.9999H36.1326L34.1697 9.71079H34.1111L32.1482 15.9999H29.7752L27.5584 7.28899L26.4939 7.15227V5.43347H31.2791V7.15227L30.156 7.36712L31.1521 12.2011H31.2107L33.1834 5.43352H35.0975L37.0896 12.2206H37.1482L38.1346 7.37682L37.0018 7.15221V5.43341H41.7869V7.15221V7.15227ZM51.3865 9.06637H49.4725L49.1697 7.74797C48.9744 7.59172 48.727 7.46151 48.4275 7.35734C48.1346 7.25318 47.809 7.20109 47.451 7.20109C46.9497 7.20109 46.5525 7.31502 46.2596 7.54289C45.9666 7.76424 45.8201 8.04419 45.8201 8.38273C45.8201 8.70174 45.9601 8.96867 46.24 9.18351C46.52 9.39185 47.0799 9.57739 47.9197 9.74015C49.2283 10.0006 50.1984 10.3847 50.8299 10.8925C51.4614 11.3938 51.7771 12.0871 51.7771 12.9726C51.7771 13.9231 51.367 14.7011 50.5467 15.3065C49.7329 15.9055 48.6587 16.205 47.324 16.205C46.5102 16.205 45.7615 16.0878 45.0779 15.8534C44.4008 15.6125 43.7986 15.2707 43.2713 14.828L43.242 12.455H45.2342L45.6248 13.8319C45.7941 13.9752 46.0252 14.0826 46.3182 14.1542C46.6111 14.2193 46.9171 14.2519 47.2361 14.2519C47.8156 14.2519 48.255 14.1477 48.5545 13.9394C48.8605 13.731 49.0135 13.4478 49.0135 13.0897C49.0135 12.7772 48.8605 12.5071 48.5545 12.2792C48.2485 12.0513 47.6853 11.8495 46.865 11.6737C45.6215 11.4198 44.6808 11.0455 44.0428 10.5507C43.4113 10.0494 43.0955 9.36905 43.0955 8.50975C43.0955 7.62433 43.4601 6.86265 44.1893 6.22455C44.9184 5.58002 45.9568 5.25775 47.3045 5.25775C48.1248 5.25775 48.8995 5.36843 49.6287 5.58978C50.3644 5.81114 50.9406 6.09434 51.3572 6.43939L51.3865 9.06639V9.06637ZM52.8416 14.291L53.8572 14.1445L58.1834 1.78147H61.1033L65.4002 14.1445L66.4158 14.291V16H61.5721V14.291L62.5584 14.1152L61.9334 12.1621H57.324L56.699 14.1152L57.6853 14.291V16H52.8416V14.291V14.291ZM57.9978 10.0625H61.2596L59.658 5.05267H59.5994L57.9978 10.0625V10.0625ZM67.2752 14.291L68.6424 13.998V7.44527L67.1287 7.1523V5.4335H71.2986L71.4256 6.9472C71.7771 6.40683 72.2101 5.98691 72.7244 5.6874C73.2387 5.38789 73.8149 5.23818 74.4529 5.23818C75.5206 5.23818 76.354 5.57347 76.9529 6.24408C77.5519 6.91465 77.8514 7.96608 77.8514 9.39838V13.998L79.2186 14.291V16H73.7693V14.291L74.99 13.998V9.40818C74.99 8.69855 74.8468 8.19728 74.5603 7.90428C74.2739 7.6048 73.8409 7.45506 73.2615 7.45506C72.8839 7.45506 72.5454 7.53318 72.2459 7.68943C71.9464 7.83917 71.6958 8.05402 71.4939 8.33396V13.998L72.6463 14.291V16H67.2752V14.291V14.291ZM86.8552 16C86.777 15.8242 86.7087 15.6452 86.6501 15.4629C86.5915 15.2741 86.5459 15.0853 86.5134 14.8965C86.1748 15.2871 85.7614 15.6029 85.2731 15.8438C84.7914 16.0846 84.238 16.2051 83.613 16.2051C82.5778 16.2051 81.7543 15.9251 81.1423 15.3652C80.5368 14.7988 80.2341 14.0306 80.2341 13.0605C80.2341 12.071 80.6312 11.306 81.4255 10.7656C82.2198 10.2253 83.3851 9.95505 84.9216 9.95505H86.3767V8.91985C86.3767 8.41204 86.2302 8.01816 85.9372 7.73825C85.6442 7.45834 85.2113 7.31833 84.6384 7.31833C84.3129 7.31833 84.0231 7.35739 83.7692 7.43552C83.5153 7.50713 83.3102 7.59502 83.154 7.69919L82.9685 8.83199H80.82L80.8298 6.48819C81.3506 6.13663 81.9463 5.8404 82.6169 5.59952C83.294 5.35863 84.0296 5.23819 84.8239 5.23819C86.1325 5.23819 87.1937 5.56046 88.0075 6.20499C88.8278 6.84301 89.238 7.75449 89.238 8.93939V13.3046V13.7636C89.2445 13.9068 89.2575 14.0435 89.277 14.1737L90.1462 14.2909V15.9999H86.8552V16ZM84.3845 14.0957C84.8142 14.0957 85.2048 14.0046 85.5563 13.8223C85.9079 13.6335 86.1813 13.3991 86.3767 13.1191V11.5078H84.9216C84.3161 11.5078 83.8571 11.651 83.5446 11.9375C83.2321 12.2174 83.0759 12.556 83.0759 12.9531C83.0759 13.3112 83.1898 13.5911 83.4177 13.793C83.652 13.9948 83.9743 14.0957 84.3845 14.0957V14.0957ZM90.82 2.48467V0.765869H95.195V13.9979L96.572 14.2909V15.9999H90.9665V14.2909L92.3435 13.9979V2.77687L90.82 2.48391V2.48467ZM108.447 7.15267L107.461 7.29916L103.574 17.5822C103.268 18.344 102.858 18.982 102.344 19.4963C101.836 20.0106 101.068 20.2678 100.039 20.2678C99.7982 20.2678 99.5703 20.2482 99.3555 20.2092C99.1471 20.1701 98.8997 20.1148 98.6133 20.0432L98.9453 17.9631C99.0365 17.9761 99.1309 17.9891 99.2285 18.0022C99.3262 18.0152 99.4108 18.0217 99.4824 18.0217C99.9577 18.0217 100.322 17.9045 100.576 17.6701C100.83 17.4423 101.025 17.1558 101.162 16.8107L101.484 16.01L98.1348 7.30876L97.1484 7.15251V5.43371H102.324V7.15251L101.143 7.34783L102.588 11.5665L102.734 12.3282L102.793 12.338L104.463 7.34783L103.271 7.15251V5.43371H108.447V7.15251V7.15267ZM113.125 13.8129H116.074L116.191 12.4066H118.369V16.0004H109.59V14.3207L114.619 7.64097H112.031L111.924 9.03747H109.736V5.43397H118.193V7.06487L113.125 13.8129V13.8129ZM124.697 16.2055C123.174 16.2055 121.956 15.7172 121.045 14.7406C120.133 13.7641 119.678 12.5238 119.678 11.0199V10.6293C119.678 9.06027 120.107 7.76797 120.967 6.75227C121.833 5.73667 122.992 5.23207 124.443 5.23857C125.869 5.23857 126.976 5.66826 127.764 6.52767C128.551 7.38705 128.945 8.54917 128.945 10.0141V11.5668H122.637L122.617 11.6254C122.669 12.322 122.9 12.8949 123.311 13.3442C123.727 13.7934 124.29 14.018 125 14.018C125.632 14.018 126.156 13.9561 126.572 13.8324C126.989 13.7022 127.445 13.5004 127.939 13.227L128.711 14.9848C128.275 15.3298 127.708 15.6195 127.012 15.8539C126.322 16.0883 125.55 16.2055 124.697 16.2055V16.2055ZM124.443 7.43587C123.916 7.43587 123.499 7.63769 123.193 8.04134C122.887 8.44498 122.699 8.97558 122.627 9.63314L122.656 9.68197H126.152V9.42806C126.152 8.8226 126.009 8.34086 125.723 7.98276C125.443 7.61818 125.016 7.43589 124.443 7.43589V7.43587ZM130.518 14.2913L131.885 13.9983V7.44557L130.371 7.1526V5.4338H134.541L134.668 6.9768C134.915 6.42993 135.234 6.0035 135.625 5.6975C136.016 5.3915 136.468 5.23851 136.982 5.23851C137.132 5.23851 137.288 5.25153 137.451 5.27757C137.62 5.29711 137.76 5.32315 137.871 5.3557L137.568 7.9533L136.396 7.92401C135.98 7.92401 135.635 8.00539 135.361 8.16815C135.088 8.33091 134.88 8.56203 134.736 8.86151V13.9982L136.104 14.2912V16.0002H130.518V14.2912V14.2913Z" fill="#1A1B22"/>
</svg>

<svg width="138" height="21" fill="none" xmlns="http://www.w3.org/2000/svg"><path d="M15.078 1.781V3.5l-1.523.293V16h-2.842L4.97 6.43l-.06.01v7.558l1.524.293V16H.547v-1.71l1.513-.292V3.793L.547 3.5V1.78h4.365l5.742 9.57.059-.01V3.794L9.189 3.5V1.781h5.889zm6.045 14.424c-1.524 0-2.741-.488-3.652-1.465-.912-.976-1.368-2.217-1.368-3.72v-.391c0-1.57.43-2.861 1.29-3.877.865-1.016 2.024-1.52 3.476-1.514 1.426 0 2.532.43 3.32 1.29.788.859 1.182 2.02 1.182 3.486v1.552h-6.309l-.02.059c.053.697.284 1.27.694 1.719.417.449.98.674 1.69.674.631 0 1.155-.062 1.572-.186.416-.13.872-.332 1.367-.605l.772 1.757c-.437.345-1.003.635-1.7.87-.69.234-1.461.351-2.314.351zm-.254-8.77c-.527 0-.944.202-1.25.606-.306.404-.495.934-.567 1.592l.03.049h3.496v-.254c0-.606-.143-1.088-.43-1.446-.28-.364-.706-.546-1.28-.546zm20.918-.283l-1.065.137-2.207 8.71h-2.382L34.17 9.712h-.059L32.148 16h-2.373l-2.217-8.711-1.064-.137V5.433h4.785v1.72l-1.123.214.996 4.834h.059l1.972-6.767h1.914l1.993 6.787h.058l.987-4.844-1.133-.225V5.433h4.785v1.72zm9.6 1.914h-1.915l-.302-1.318a2.487 2.487 0 00-.742-.39 2.899 2.899 0 00-.977-.157c-.501 0-.898.114-1.191.342-.293.221-.44.501-.44.84 0 .319.14.586.42.8.28.209.84.394 1.68.557 1.308.26 2.278.645 2.91 1.152.631.502.947 1.195.947 2.08 0 .951-.41 1.73-1.23 2.335-.814.598-1.888.898-3.223.898a6.885 6.885 0 01-2.246-.352 5.813 5.813 0 01-1.807-1.025l-.029-2.373h1.992l.39 1.377c.17.143.401.25.694.322.293.065.6.098.918.098.58 0 1.019-.104 1.319-.313a.976.976 0 00.459-.85c0-.312-.154-.582-.46-.81-.306-.228-.869-.43-1.689-.605-1.244-.254-2.184-.628-2.822-1.123-.632-.502-.947-1.182-.947-2.041 0-.886.364-1.647 1.093-2.285.73-.645 1.768-.967 3.115-.967.82 0 1.596.11 2.325.332.735.221 1.312.504 1.728.85l.03 2.626zm1.455 5.225l1.015-.146L58.183 1.78h2.92L65.4 14.145l1.016.146V16h-4.844v-1.709l.986-.176-.625-1.953h-4.609l-.625 1.953.986.176V16h-4.843v-1.709zm5.156-4.229h3.262l-1.602-5.01h-.059l-1.601 5.01zm9.277 4.229l1.367-.293V7.445l-1.513-.293V5.434h4.17l.127 1.513a3.87 3.87 0 011.298-1.26c.515-.3 1.09-.449 1.729-.449 1.068 0 1.901.335 2.5 1.006.599.67.898 1.722.898 3.154v4.6l1.368.293V16h-5.45v-1.709l1.221-.293v-4.59c0-.71-.143-1.21-.43-1.504-.286-.3-.72-.449-1.299-.449-.377 0-.716.078-1.015.234-.3.15-.55.365-.752.645v5.664l1.152.293V16h-5.37v-1.709zM86.855 16a4.465 4.465 0 01-.342-1.104 3.901 3.901 0 01-1.24.948c-.482.24-1.035.361-1.66.361-1.035 0-1.859-.28-2.47-.84-.606-.566-.909-1.334-.909-2.305 0-.989.397-1.754 1.192-2.294.794-.54 1.96-.811 3.496-.811h1.455V8.92c0-.508-.147-.902-.44-1.182-.293-.28-.726-.42-1.299-.42-.325 0-.615.04-.869.118a2.18 2.18 0 00-.615.263l-.185 1.133H80.82l.01-2.344a8.031 8.031 0 011.787-.888 6.54 6.54 0 012.207-.362c1.308 0 2.37.322 3.183.967.82.638 1.231 1.55 1.231 2.734v4.825c.007.143.02.28.039.41l.87.117V16h-3.292zm-2.47-1.904c.43 0 .82-.091 1.171-.274.352-.188.625-.423.82-.703v-1.611h-1.454c-.606 0-1.065.143-1.377.43-.313.28-.47.618-.47 1.015 0 .358.115.638.343.84.234.202.556.303.966.303zM90.82 2.485V.765h4.375v13.233l1.377.293V16h-5.606v-1.71l1.378-.292V2.777l-1.524-.293zm17.627 4.668l-.986.146-3.887 10.283c-.306.762-.716 1.4-1.23 1.914-.508.515-1.276.772-2.305.772-.24 0-.469-.02-.683-.059a12.629 12.629 0 01-.743-.166l.332-2.08.284.04c.097.012.182.019.253.019.476 0 .84-.117 1.094-.352.254-.228.449-.514.586-.86l.322-.8-3.35-8.701-.986-.156v-1.72h5.176v1.72l-1.181.195 1.445 4.218.146.762.059.01 1.67-4.99-1.192-.195v-1.72h5.176v1.72zm4.678 6.66h2.949l.117-1.406h2.178V16h-8.779v-1.68l5.029-6.679h-2.588l-.107 1.396h-2.188V5.434h8.457v1.63l-5.068 6.749zm11.572 2.393c-1.523 0-2.741-.489-3.652-1.465-.912-.977-1.367-2.217-1.367-3.721v-.39c0-1.57.429-2.862 1.289-3.878.866-1.015 2.025-1.52 3.476-1.513 1.426 0 2.533.43 3.321 1.289.787.86 1.181 2.021 1.181 3.486v1.553h-6.308l-.02.058c.052.697.283 1.27.694 1.72.416.448.979.673 1.689.673.632 0 1.156-.062 1.572-.186.417-.13.873-.332 1.367-.605l.772 1.758c-.436.345-1.003.635-1.699.869-.69.234-1.462.352-2.315.352zm-.254-8.77c-.527 0-.944.202-1.25.605-.306.404-.494.935-.566 1.592l.029.049h3.496v-.254c0-.605-.143-1.087-.429-1.445-.28-.365-.707-.547-1.28-.547zm6.075 6.855l1.367-.293V7.446l-1.514-.293v-1.72h4.17l.127 1.544c.247-.547.566-.974.957-1.28a2.139 2.139 0 011.357-.458c.15 0 .306.013.469.039.169.02.309.045.42.078l-.303 2.597-1.172-.029c-.416 0-.761.081-1.035.244a1.585 1.585 0 00-.625.694v5.136l1.368.293v1.71h-5.586v-1.71z" fill="#1A1B22"/></svg>
